// test_sintaxis_basica.scd
// Test básico para verificar que la sintaxis funciona

(
var mensaje;

mensaje = "✓ Sintaxis básica funcionando correctamente";
mensaje.postln;

"Si ves este mensaje, la sintaxis está bien".postln;
)
